source/images/icon/stars.svg

<svg fill="none" height="48" viewBox="0 0 230 48" width="230" xmlns="http://www.w3.org/2000/svg"><rect fill="#d1d5db" height="48" rx="24" width="230"/><g fill="#4b5563"><path d="m40.6175 12 2.9786 9.1672h9.639l-7.7981 5.6656 2.9786 9.1672-7.7981-5.6656-7.798 5.6656 2.9786-9.1672-7.7981-5.6656h9.6389z"/><path d="m77.8527 12 2.9786 9.1672h9.6389l-7.7981 5.6656 2.9786 9.1672-7.798-5.6656-7.7981 5.6656 2.9786-9.1672-7.7981-5.6656h9.639z"/><path d="m115.088 12 2.978 9.1672h9.639l-7.798 5.6656 2.979 9.1672-7.798-5.6656-7.798 5.6656 2.978-9.1672-7.798-5.6656h9.639z"/><path d="m152.323 12 2.978 9.1672h9.639l-7.798 5.6656 2.979 9.1672-7.798-5.6656-7.798 5.6656 2.978-9.1672-7.798-5.6656h9.639z"/><path d="m189.558 12 2.979 9.1672h9.639l-7.799 5.6656 2.979 9.1672-7.798-5.6656-7.798 5.6656 2.979-9.1672-7.799-5.6656h9.639z"/></g></svg>

<svg width="230" height="48" viewBox="0 0 230 48" fill="none" xmlns="http://www.w3.org/2000/svg">
<rect width="230" height="48" rx="24" fill="#D1D5DB"/>
<path d="M40.6175 12L43.5961 21.1672H53.2351L45.437 26.8328L48.4156 36L40.6175 30.3344L32.8195 36L35.7981 26.8328L28 21.1672H37.6389L40.6175 12Z" fill="#4B5563"/>
<path d="M77.8527 12L80.8313 21.1672H90.4702L82.6721 26.8328L85.6507 36L77.8527 30.3344L70.0546 36L73.0332 26.8328L65.2351 21.1672H74.8741L77.8527 12Z" fill="#4B5563"/>
<path d="M115.088 12L118.066 21.1672H127.705L119.907 26.8328L122.886 36L115.088 30.3344L107.29 36L110.268 26.8328L102.47 21.1672H112.109L115.088 12Z" fill="#4B5563"/>
<path d="M152.323 12L155.301 21.1672H164.94L157.142 26.8328L160.121 36L152.323 30.3344L144.525 36L147.503 26.8328L139.705 21.1672H149.344L152.323 12Z" fill="#4B5563"/>
<path d="M189.558 12L192.537 21.1672H202.176L194.377 26.8328L197.356 36L189.558 30.3344L181.76 36L184.739 26.8328L176.94 21.1672H186.579L189.558 12Z" fill="#4B5563"/>
</svg>
